packages/icon/src/svg/envelope-arrow.icon.svg

<svg width="24" height="24" viewBox="0 0 24 24" fill="none" xmlns="http://www.w3.org/2000/svg">
<path fill-rule="evenodd" clip-rule="evenodd" d="M3 4H21C21.5522 4 22 4.44775 22 5V16.5L20 14.5V7.41418L12.3535 15.0607C12.1583 15.256 11.8417 15.256 11.6465 15.0607L4 7.41418V18H14V20H3C2.44775 20 2 19.5522 2 19V5C2 4.44775 2.44775 4 3 4ZM5.41418 6L12 12.5858L18.5858 6H5.41418ZM19.176 18L18.2366 17.0605C18.0415 16.8652 18.0414 16.5487 18.2365 16.3533L18.9434 15.6455C19.1389 15.4501 19.4554 15.4501 19.6505 15.6455L22.6504 18.6464C22.8457 18.8417 22.8457 19.1582 22.6504 19.3535L19.6506 22.3535C19.4552 22.5488 19.1387 22.5487 18.9436 22.3533L18.2365 21.6456C18.0413 21.4503 18.0414 21.1337 18.2367 20.9386L19.176 20H15.5C15.2239 20 15 19.7761 15 19.5V18.5C15 18.2239 15.2239 18 15.5 18H19.176Z" fill="white"/>
</svg>

<svg aria-label="envelope arrow icon" viewBox="0 0 24 24"><path fill-rule="evenodd" clip-rule="evenodd" d="M3 4h18a1 1 0 011 1v11.5l-2-2V7.414l-7.646 7.647a.5.5 0 01-.707 0L4 7.414V18h10v2H3a1 1 0 01-1-1V5a1 1 0 011-1zm2.414 2L12 12.586 18.586 6H5.414zm13.762 12l-.94-.94a.5.5 0 010-.707l.707-.708a.5.5 0 01.707 0l3 3.001a.5.5 0 010 .707l-3 3a.5.5 0 01-.706 0l-.707-.707a.5.5 0 010-.707l.939-.939H15.5a.5.5 0 01-.5-.5v-1a.5.5 0 01.5-.5h3.676z"/></svg>
